X:138
T:Nell Fee's
R:polka
H:Two part version, see #79
H:Also played in G
Z:id:hn-polka-138
M:2/4
L:1/8
K:D
D>D DB | AF FB | AF F/E/D/E/ | FE EF/E/ |
D>D DB | AF FB | AF EF/E/ | D2 DA :|
|: d2 cd | BA FA | de/d/ cd | B2 Bc |
de/d/ cd | BA FB | AF EF/E/ | D2 DA :|
|: d2 e2 | f3 f | ed Bc | d3 A |
Bd/B/ AF | Bd/B/ AF | AF EF/E/ | D3 A :|

